X:415
T: Scallop's Favorite
S: P.Reddan: "Knockanalban"
C: P.Reddan
Q: 300
L: 1/8
M: 6/8
R: jig
K: D
D|FED EDB,|A,DD CEA|FAd B2A|def gfe|
fed edB|AFd D2F|GFG FdF|GEC D2 :|
B|ded dfg|aba afd|BAB gfg|baf gfe|
fed edB|AFd D2F|GFG FdF|GEC D2 :|
